X: 4
T: Bruach Na Carraige Baine
R: waltz
M: 3/4
L: 1/8
K: Dmaj
de|:f4 ef|d2 a3f|e3d Be|A2 f3 e|
d3e B2|A3 F A2|(B6|1 B4) de:|2 B6)||
d4 Bc|d2 e2 f2|a3 b a2|f4 e2|d3 B c2|d2 e2 f2|b6|a4 f2|
g4 a>g|f2 a2 f2|e2 ed Be|A2 f3e|d3e B2|A3 F A2|(B6|B4) de|]


Tune 1165	Setting 29842

